X:48
T:Kate Mcfarlan
M:C|
L:1/8
K:D
e|fA A/A/A Te>dBe|fA A/A/A Te2de|fA A/A/A Te>dBe|aefd Te2d:|
e|fdfd     Te>dBe|fdfd     Te2de|fdfd     Te>dBe|aefd Te2d:|

% @@@@@@@@@@@@@@@@@@@@@@@@@@@@@@@@@@

% @FINIS.@

